assets/icons/keylight.svg

<svg width="24" height="24" viewBox="0 0 24 24" fill="none" xmlns="http://www.w3.org/2000/svg">
<path d="M19.7897 14.9303C17.7297 16.9803 14.7797 17.6103 12.1897 16.8003L7.47966 21.5003C7.13966 21.8503 6.46966 22.0603 5.98966 21.9903L3.80966 21.6903C3.08966 21.5903 2.41966 20.9103 2.30966 20.1903L2.00966 18.0103C1.93966 17.5303 2.16966 16.8603 2.49966 16.5203L7.19966 11.8203C6.39966 9.22031 7.01966 6.27031 9.07966 4.22031C12.0297 1.27031 16.8197 1.27031 19.7797 4.22031C22.7397 7.17031 22.7397 11.9803 19.7897 14.9303Z" stroke="#5E6875" stroke-width="1.5" stroke-miterlimit="10" stroke-linecap="round" stroke-linejoin="round"/>
<path d="M6.88965 17.4902L9.18965 19.7902" stroke="#5E6875" stroke-width="1.5" stroke-miterlimit="10" stroke-linecap="round" stroke-linejoin="round"/>
<path d="M14.5 11C15.3284 11 16 10.3284 16 9.5C16 8.67157 15.3284 8 14.5 8C13.6716 8 13 8.67157 13 9.5C13 10.3284 13.6716 11 14.5 11Z" stroke="#5E6875" stroke-width="1.5" stroke-linecap="round" stroke-linejoin="round"/>
</svg>

<svg width="24" height="24" viewBox="0 0 24 24" fill="none" xmlns="http://www.w3.org/2000/svg"><path d="M19.79 14.93a7.6 7.6 0 0 1-7.6 1.87l-4.71 4.7c-.34.35-1.01.56-1.49.49l-2.18-.3a1.9 1.9 0 0 1-1.5-1.5l-.3-2.18c-.07-.48.16-1.15.49-1.49l4.7-4.7a7.57 7.57 0 1 1 12.59 3.11m-12.9 2.56 2.3 2.3" stroke="#5E6875" stroke-width="1.5" stroke-miterlimit="10" stroke-linecap="round" stroke-linejoin="round"/><path d="M14.5 11a1.5 1.5 0 1 0 0-3 1.5 1.5 0 0 0 0 3" stroke="#5E6875" stroke-width="1.5" stroke-linecap="round" stroke-linejoin="round"/></svg>
